X:2084 
T:No title 
C:Charles Faragher
O:Isle of Man
S:Traditional
Z:Clague collection
B:Kiaull Vannin #84 
M:3/8 
L:1/8 
Q:220 
K:G 
G2D|D2E|F2A|B3|d2B|B2A|A2G|G3|G2D|D2E|F2A|B3|d2d|B2G|(A2G)|G3|| 

